X: 6
T:London Pride
M:2/2
L:1/8
O:Longborough
N:CJS MSS (from Mason) (Also know as Old Meddon of Fawsley)
P:A(AB2)5
K:GDor
P:A
d3e f2d2|cBAG F2F2|G2d2 dcBA|G3A G4|
d3e f2d2|cBAG F2F2|G2d2 dcBA|G4  G4||
P:B
d3e f2d2|gfed c2c2|d3d  e2e2|g4  d4|
d3e f2d2|cBAG F2F2|G2d2 dcBA|G4  G4||
